material/.icons/material/record-circle-outline.svg

<svg xmlns="http://www.w3.org/2000/svg" viewBox="0 0 24 24"><path d="M12 2A10 10 0 002 12a10 10 0 0010 10 10 10 0 0010-10A10 10 0 0012 2m0 2a8 8 0 018 8 8 8 0 01-8 8 8 8 0 01-8-8 8 8 0 018-8m0 5a3 3 0 00-3 3 3 3 0 003 3 3 3 0 003-3 3 3 0 00-3-3z"/></svg>

<?xml version="1.0" encoding="UTF-8"?><!DOCTYPE svg PUBLIC "-//W3C//DTD SVG 1.1//EN" "http://www.w3.org/Graphics/SVG/1.1/DTD/svg11.dtd"><svg xmlns="http://www.w3.org/2000/svg" xmlns:xlink="http://www.w3.org/1999/xlink" version="1.1" id="mdi-record-circle-outline" width="24" height="24" viewBox="0 0 24 24"><path d="M12,2A10,10 0 0,0 2,12A10,10 0 0,0 12,22A10,10 0 0,0 22,12A10,10 0 0,0 12,2M12,4A8,8 0 0,1 20,12A8,8 0 0,1 12,20A8,8 0 0,1 4,12A8,8 0 0,1 12,4M12,9A3,3 0 0,0 9,12A3,3 0 0,0 12,15A3,3 0 0,0 15,12A3,3 0 0,0 12,9Z" /></svg>
